X: 4
T: Maudabawn Chapel
R: reel
M: 4/4
L: 1/8
K: Edor
EF |: (3GFE {F}ED EB,DB, | G,A,B,D EB,DB, | G,A,B,D GABd | gabg eaaf |
|1 gabg efge | dfed Bc d2 | (3efg fa gbec | dBA=c BE{F}EF :|
|2 ~g3 a {b}agaf | gfed efge | dfe=c BcdB | G=cBA GE{F}ED |]
|: E2 BE eEBE | GABG AFDF | ~E3 F GFGB | A2 (3FED A,DFD |
E2 BE eEBE | {Bc}BAFA Bcde | ~f2 (3agf gfec |1 dBA=c BE{F}ED :|2 dBA=c BE{F}EF ||


Tune 302	Setting 13062

